X: 1
M: C|
L: 1/8
K: D
|:\
d2d2 fedc | d2d2 d2A2 | BdcB (AG).F.E | D2D2 D4 |\
d2d2 fedc | (df) a4 ^gf | ea^gf (ed).c.B | A2A2 A4 :|
|:\
(Ac)(ec) (Ad)(fd) | (Ae)(ge) (Af)(af) | (Gd)(ba) (gfed) | Tc2 A4 GF |\


